X: 89
T:Y Ceiliog Gwyn
T:The White Cockerel
M:2/2
L:1/8
Q:150
C:Trad
S:Blodau'r Grug Collection Vol. 1
R:Set Dance
A:Wales
Z:brian_martin12345@yahoo.com
K:D
F>A d>e d2-d>c|e>d c>B A3z|F>A d>e d2-d>c|e>d c>B A3d/e/|!
f2e2d3z/e/|f2e2d3z/c/|B>A d>c B>A d>e|f2e2d4:||

